Simply-White-Circles/scalable/apps/skype.svg

<svg xmlns="http://www.w3.org/2000/svg" width="48" height="48" viewBox="0 0 12.7 12.7"><path fill="#e6e6e6" d="M6.344.073a6.29 6.29 0 0 0-6.29 6.29 6.29 6.29 0 0 0 6.29 6.288 6.29 6.29 0 0 0 6.29-6.289 6.29 6.29 0 0 0-6.29-6.29zm-.018.936a5.407 5.407 0 0 1 5.407 5.407 5.407 5.407 0 0 1-5.407 5.407A5.407 5.407 0 0 1 .92 6.416 5.407 5.407 0 0 1 6.326 1.01zM4.413 2.107a2.307 2.307 0 0 0-2.035 3.396 4.08 4.08 0 0 0-.087.847 4.06 4.06 0 0 0 4.059 4.059c.29 0 .574-.029.847-.087a2.307 2.307 0 0 0 3.125-3.125 4.08 4.08 0 0 0 .087-.847A4.06 4.06 0 0 0 6.35 2.292c-.29 0-.574.034-.847.092a2.304 2.304 0 0 0-1.09-.277zm1.862 1.68c1.268 0 1.92.67 1.92 1.061 0 .392-.19.456-.502.456-.604 0-.353-.727-1.487-.727-.376 0-.842.169-.842.606 0 .351.408.479 1.142.657 1.102.295 1.937.594 1.937 1.603 0 .98-.808 1.47-2.076 1.47s-2.075-.756-2.075-1.148c0-.392.15-.495.461-.495.604 0 .52.824 1.655.824.375 0 .928-.168.928-.606 0-.35-.027-.476-.83-.691-.86-.117-2.249-.392-2.249-1.458 0-.98.75-1.552 2.018-1.552z"/></svg>

<?xml version="1.0" encoding="UTF-8" standalone="no"?>
<svg
   xmlns:dc="http://purl.org/dc/elements/1.1/"
   xmlns:cc="http://creativecommons.org/ns#"
   xmlns:rdf="http://www.w3.org/1999/02/22-rdf-syntax-ns#"
   xmlns:svg="http://www.w3.org/2000/svg"
   xmlns="http://www.w3.org/2000/svg"
   xmlns:sodipodi="http://sodipodi.sourceforge.net/DTD/sodipodi-0.dtd"
   xmlns:inkscape="http://www.inkscape.org/namespaces/inkscape"
   width="48"
   height="48"
   viewBox="0 0 12.7 12.7"
   version="1.1"
   id="svg4"
   sodipodi:docname="skype.svg"
   inkscape:version="0.92.4 (5da689c313, 2019-01-14)">
  <metadata
     id="metadata10">
    <rdf:RDF>
      <cc:Work
         rdf:about="">
        <dc:format>image/svg+xml</dc:format>
        <dc:type
           rdf:resource="http://purl.org/dc/dcmitype/StillImage" />
        <dc:title></dc:title>
      </cc:Work>
    </rdf:RDF>
  </metadata>
  <defs
     id="defs8" />
  <sodipodi:namedview
     pagecolor="#ffffff"
     bordercolor="#666666"
     borderopacity="1"
     objecttolerance="10"
     gridtolerance="10"
     guidetolerance="10"
     inkscape:pageopacity="0"
     inkscape:pageshadow="2"
     inkscape:window-width="1087"
     inkscape:window-height="480"
     id="namedview6"
     showgrid="false"
     inkscape:zoom="4.9166667"
     inkscape:cx="2.1355932"
     inkscape:cy="24"
     inkscape:window-x="0"
     inkscape:window-y="25"
     inkscape:window-maximized="0"
     inkscape:current-layer="svg4" />
  <path
     d="m 6.344,0.073 a 6.29,6.29 0 0 0 -6.29,6.29 6.29,6.29 0 0 0 6.29,6.288 6.29,6.29 0 0 0 6.29,-6.289 6.29,6.29 0 0 0 -6.29,-6.29 z M 6.326,1.009 A 5.407,5.407 0 0 1 11.733,6.416 5.407,5.407 0 0 1 6.326,11.823 5.407,5.407 0 0 1 0.92,6.416 5.407,5.407 0 0 1 6.326,1.01 Z M 4.413,2.107 A 2.307,2.307 0 0 0 2.378,5.503 4.08,4.08 0 0 0 2.291,6.35 4.06,4.06 0 0 0 6.35,10.409 c 0.29,0 0.574,-0.029 0.847,-0.087 A 2.307,2.307 0 0 0 10.322,7.197 4.08,4.08 0 0 0 10.409,6.35 4.06,4.06 0 0 0 6.35,2.292 c -0.29,0 -0.574,0.034 -0.847,0.092 A 2.304,2.304 0 0 0 4.413,2.107 Z m 1.862,1.68 c 1.268,0 1.92,0.67 1.92,1.061 0,0.392 -0.19,0.456 -0.502,0.456 -0.604,0 -0.353,-0.727 -1.487,-0.727 -0.376,0 -0.842,0.169 -0.842,0.606 0,0.351 0.408,0.479 1.142,0.657 1.102,0.295 1.937,0.594 1.937,1.603 0,0.98 -0.808,1.47 -2.076,1.47 -1.268,0 -2.075,-0.756 -2.075,-1.148 0,-0.392 0.15,-0.495 0.461,-0.495 0.604,0 0.52,0.824 1.655,0.824 0.375,0 0.928,-0.168 0.928,-0.606 0,-0.35 -0.027,-0.476 -0.83,-0.691 C 5.646,6.68 4.257,6.405 4.257,5.339 c 0,-0.98 0.75,-1.552 2.018,-1.552 z"
     id="path2"
     inkscape:connector-curvature="0"
     style="fill:#e6e6e6" />
</svg>
